src/static/logos/yahoo.svg

<?xml version="1.0" encoding="UTF-8"?>
<svg width="512px" height="143px" viewBox="0 0 512 143" version="1.1" xmlns="http://www.w3.org/2000/svg" xmlns:xlink="http://www.w3.org/1999/xlink" preserveAspectRatio="xMidYMid">
    <g>
        <path d="M0,34.6068096 L30.4746532,34.6068096 L48.1654477,79.9313997 L66.1145019,34.6068096 L95.8143758,34.6068096 L51.1354351,142.042875 L21.3064313,142.042875 L33.5737705,113.6343 L0,34.6068096 Z M126.676419,32.7989912 C103.820429,32.7989912 89.3578815,53.3306431 89.3578815,73.7331652 C89.3578815,96.718285 105.240858,114.925599 126.289029,114.925599 C142.042875,114.925599 147.98285,105.369987 147.98285,105.369987 L147.98285,112.859521 L174.583607,112.859521 L174.583607,34.6068096 L147.98285,34.6068096 L147.98285,41.7089533 C147.85372,41.7089533 141.268096,32.7989912 126.676419,32.7989912 Z M132.358134,57.979319 C142.946784,57.979319 148.37024,66.3727617 148.37024,73.8622951 C148.37024,81.9974779 142.559395,90.0035309 132.358134,90.0035309 C123.964691,90.0035309 116.346028,83.1596469 116.346028,74.2496847 C116.346028,65.2105927 122.415132,57.979319 132.358134,57.979319 Z M183.622699,112.859521 L183.622699,0 L211.385624,0 L211.385624,41.9672131 C211.385624,41.9672131 217.971248,32.7989912 231.788146,32.7989912 C248.704161,32.7989912 258.647163,45.4537201 258.647163,63.4027743 L258.647163,112.859521 L231.013367,112.859521 L231.013367,70.1175284 C231.013367,64.0484237 228.172509,58.1084489 221.586885,58.1084489 C214.872131,58.1084489 211.385624,64.0484237 211.385624,70.1175284 L211.385624,112.859521 L183.622699,112.859521 Z M306.037831,32.7989912 C279.824464,32.7989912 264.199748,52.6849937 264.199748,74.1205549 C264.199748,98.3969735 283.052711,115.054729 306.166961,115.054729 C328.506431,115.054729 348.005044,99.1717528 348.005044,74.5079445 C348.005044,47.5197982 327.473392,32.7989912 306.037831,32.7989912 Z M306.296091,58.1084489 C315.593443,58.1084489 321.920807,65.8562421 321.920807,73.991425 C321.920807,80.9644388 315.980832,89.6161412 306.296091,89.6161412 C297.386129,89.6161412 290.800504,82.5139975 290.800504,73.8622951 C290.800504,65.7271122 296.22396,58.1084489 306.296091,58.1084489 Z M394.233544,32.7989912 C368.020177,32.7989912 352.39546,52.6849937 352.39546,74.1205549 C352.39546,98.3969735 371.248424,115.054729 394.362673,115.054729 C416.702144,115.054729 436.200757,99.1717528 436.200757,74.5079445 C436.200757,47.5197982 415.798235,32.7989912 394.233544,32.7989912 Z M394.491803,58.1084489 C403.789155,58.1084489 410.11652,65.8562421 410.11652,73.991425 C410.11652,80.9644388 404.176545,89.6161412 394.491803,89.6161412 C385.581841,89.6161412 378.996217,82.5139975 378.996217,73.8622951 C378.996217,65.7271122 384.548802,58.1084489 394.491803,58.1084489 Z M458.152837,77.6070618 C468.354098,77.6070618 476.618411,85.8713745 476.618411,96.0726356 C476.618411,106.273897 468.354098,114.538209 458.152837,114.538209 C447.951576,114.538209 439.687264,106.273897 439.687264,96.0726356 C439.687264,85.8713745 447.951576,77.6070618 458.152837,77.6070618 Z M482.687516,70.8923077 L449.501135,70.8923077 L478.942749,7.10542736e-15 L512,7.10542736e-15 L482.687516,70.8923077 Z" fill="#5F01D1" fill-rule="nonzero"></path>
    </g>
</svg>

<svg width="512" height="143" xmlns="http://www.w3.org/2000/svg" preserveAspectRatio="xMidYMid"><path d="M0 34.607h30.475l17.69 45.324 17.95-45.324h29.7l-44.68 107.436H21.306l12.268-28.409L0 34.607zm126.676-1.808c-22.856 0-37.318 20.532-37.318 40.934 0 22.985 15.883 41.193 36.931 41.193 15.754 0 21.694-9.556 21.694-9.556v7.49h26.6V34.607h-26.6v7.102c-.13 0-6.715-8.91-21.307-8.91zm5.682 25.18c10.589 0 16.012 8.394 16.012 15.883 0 8.135-5.81 16.142-16.012 16.142-8.393 0-16.012-6.844-16.012-15.754 0-9.04 6.07-16.27 16.012-16.27zm51.265 54.88V0h27.763v41.967s6.585-9.168 20.402-9.168c16.916 0 26.86 12.655 26.86 30.604v49.457h-27.635V70.118c0-6.07-2.84-12.01-9.426-12.01-6.715 0-10.201 5.94-10.201 12.01v42.742h-27.763zM306.038 32.8c-26.214 0-41.838 19.886-41.838 41.322 0 24.276 18.853 40.934 41.967 40.934 22.34 0 41.838-15.883 41.838-40.547 0-26.988-20.532-41.709-41.967-41.709zm.258 25.31c9.297 0 15.625 7.747 15.625 15.882 0 6.973-5.94 15.625-15.625 15.625-8.91 0-15.495-7.102-15.495-15.754 0-8.135 5.423-15.754 15.495-15.754zm87.938-25.31c-26.214 0-41.839 19.886-41.839 41.322 0 24.276 18.853 40.934 41.968 40.934 22.34 0 41.838-15.883 41.838-40.547 0-26.988-20.403-41.709-41.967-41.709zm.258 25.31c9.297 0 15.625 7.747 15.625 15.882 0 6.973-5.94 15.625-15.625 15.625-8.91 0-15.496-7.102-15.496-15.754 0-8.135 5.553-15.754 15.496-15.754zm63.66 19.498c10.202 0 18.466 8.264 18.466 18.466 0 10.2-8.264 18.465-18.465 18.465s-18.466-8.264-18.466-18.465c0-10.202 8.265-18.466 18.466-18.466zm24.536-6.715H449.5L478.943 0H512l-29.312 70.892z" fill="#5F01D1"/></svg>
